material/.icons/material/file-tree-outline.svg

<svg xmlns="http://www.w3.org/2000/svg" viewBox="0 0 24 24"><path d="M12 13H7v5h5v2H5V10h2v1h5v2M8 4v2H4V4h4m2-2H2v6h8V2m10 9v2h-4v-2h4m2-2h-8v6h8V9m-2 9v2h-4v-2h4m2-2h-8v6h8v-6z"/></svg>

<?xml version="1.0" encoding="UTF-8"?><!DOCTYPE svg PUBLIC "-//W3C//DTD SVG 1.1//EN" "http://www.w3.org/Graphics/SVG/1.1/DTD/svg11.dtd"><svg xmlns="http://www.w3.org/2000/svg" xmlns:xlink="http://www.w3.org/1999/xlink" version="1.1" id="mdi-file-tree-outline" width="24" height="24" viewBox="0 0 24 24"><path d="M12 13H7V18H12V20H5V10H7V11H12V13M8 4V6H4V4H8M10 2H2V8H10V2M20 11V13H16V11H20M22 9H14V15H22V9M20 18V20H16V18H20M22 16H14V22H22V16Z" /></svg>
